X:1
T:Title
%%score { 1 | 2 } { ( 3 5 ) | ( 4 6 ) }
L:1/8
M:3/4
K:Db
V:1 treble nm="Akkordion"
V:2 treble 
V:3 bass nm="Grand Piano"
V:5 bass 
V:4 bass 
V:6 bass 
V:1
 z2 z2[Q:1/4=92] F>G | A2 A2 B>A | A2 d3 e | d>c B2 c2 | d4 F>G | A2 A2 B>A | A2 G3 B | A2 A2 G2 | %8
 F4 A2 | d2 d3 A | B2 B3 B | d2 e3 d |[M:4/4] c6 A2 |[M:3/4] f3 d AA |[M:7/8] B2 d3 B2 | A3 d e3 | %16
[M:3/4] d6 |[M:1/4] z2 |[M:3/4] z6 | z6 | z6 |[M:2/4] z4 |[M:1/4] z2 |[M:3/4] z6 |[M:7/8] z7 | z7 | %26
[M:2/4] z4 |] %27
V:2
 z2 z2 D>E | F2 F2 G>F | F2 F3 F | G2 G2 G2 | F4 D>E | F2 F2 F2 | F2 E3 G | F2 F2 E2 | D4 F2 | %9
 F2 F3 F | G2 G3 G | E2 =G3 G |[M:4/4] G6 FE |[M:3/4] D3 F z F |[M:7/8] G2 B3 D2 | F3 F G3 | %16
[M:3/4] F6 |[M:1/4] z2 |[M:3/4] z6 | z6 | z6 |[M:2/4] z4 |[M:1/4] z2 |[M:3/4] z6 |[M:7/8] z7 | z7 | %26
[M:2/4] z4 |] %27
V:3
 z6 | z A,[K:treble] FA, GF | z A,[K:treble] FA, F[K:bass]A, | z A,[K:treble] GA, G[K:bass]A, | %4
 z A,[K:treble] FA, F[K:bass]A, | z A,[K:treble] FA, F[K:bass]A, | %6
 z B,[K:treble] GB, [EG][K:bass]B, | z A,[K:treble] FA, E[K:bass]A, | z A, DA,[K:treble] FA, | %9
 z A,[K:treble] AA, F[K:bass]A, | z B,[K:treble] BB, G[K:bass]B, | z2[K:treble] .[E=G]2 .[EG]2 | %12
[M:4/4] [CEG]6 [A,DF][CE] |[M:3/4][K:bass] [F,A,D]3[K:treble] [DF] [_CFA][CD] | %14
[M:7/8] [B,D]2 [B,DG]3 [B,D_F]2 | [A,DF]3 [A,DF] [A,CG]3 |[M:3/4] [A,DF]6 |[M:1/4] [FA]2 | %18
[M:3/4] [Fd]2 [Gd]2 [Ad]2 | [Gd]2 [Gd]2 [Fd]2 | [EA]2 [DA]2 [CA]2 |[M:2/4] A4 |[M:1/4] _c2 | %23
[M:3/4] B4 dd |[M:7/8] [Fd]2 [DA]3 [D=G]2 | [DA]3 [B,D] [CE]3 |[M:2/4] D4 |] %27
V:4
 z6 | z2 .D2 B,A, | z2 .D2 .D2 | z2 .C2 .C2 | z2 .D2 .D2 | z2 .=D2 .D2 | z2 .E2 [G,,,G,,]2 | %7
 z2 .D2 .G,2 | z2 .F,2 .D2 | z2 .D2 .D2 | z2 .D2 .D2 | z B, DB, DB, |[M:4/4] A,,6 z F, | %13
[M:3/4] z2 z A, [D,,D,]2 |[M:7/8] [G,,,G,,]-[G,,,G,,]- [G,,,G,,]3 [=G,,,=G,,]2 | %15
 [A,,,A,,]3 [A,,,A,,] [A,,,A,,]3 |[M:3/4] [D,,D,]6 |[M:1/4] [D,A,]2 | %18
[M:3/4] [D,A,]2 [D,B,]2 [D,_C]2 | [G,,B,]2 [G,,B,]2 [A,,A,]2 | [A,,G,]2 [A,,F,]2 [A,,E,]2 | %21
[M:2/4] [D,F,D]4 |[M:1/4] [F,A,D]2 |[M:3/4] [G,D]4 [G,,B,D][G,,=A,E] | %24
[M:7/8] [D,A,]2 [D,F,]3 [=A,,_F,]2 | [A,,F,]3 [A,,F,] [A,,G,]3 |[M:2/4] [D,F,]4 |] %27
V:5
 x6 | D,4[K:treble] z2 | D,4[K:treble] z2[K:bass] | A,,4[K:treble] z2[K:bass] | %4
 D,4[K:treble] z2[K:bass] | B,,4[K:treble] z2[K:bass] | E,4[K:treble] z2[K:bass] | %7
 A,,4[K:treble] z2[K:bass] | D,4[K:treble] z2 | F,4[K:treble] z2[K:bass] | %10
 G,4[K:treble] z2[K:bass] | E,4[K:treble] z2 |[M:4/4] x8 |[M:3/4][K:bass] D,4[K:treble] z2 | %14
[M:7/8] x7 | x7 |[M:3/4] x6 |[M:1/4] x2 |[M:3/4] x6 | x6 | x6 |[M:2/4] x4 |[M:1/4] x2 |[M:3/4] x6 | %24
[M:7/8] x7 | x7 |[M:2/4] x4 |] %27
V:6
 x6 | D,,4 z2 | D,,4 z2 | A,,,4 z2 | D,,4 z2 | B,,,4 z2 | E,,4 z2 | A,,,4 z2 | D,,4 z2 | F,,4 z2 | %10
 G,,4 z2 | E,,4 z2 |[M:4/4] z4 z2 A,,2 |[M:3/4] D,,4 z2 |[M:7/8] x7 | x7 |[M:3/4] x6 |[M:1/4] x2 | %18
[M:3/4] x6 | x6 | x6 |[M:2/4] x4 |[M:1/4] x2 |[M:3/4] x6 |[M:7/8] x7 | x7 |[M:2/4] x4 |] %27

